flaticon/online-marketing/monitoring.svg

<svg xmlns="http://www.w3.org/2000/svg" width="32" height="32" viewBox="0 0 24 24">
    <path d="M 22.234375 3.28125 L 1.765625 3.28125 C 0.792969 3.28125 0 4.074219 0 5.046875 L 0 17.421875 C 0 18.394531 0.792969 19.183594 1.765625 19.183594 L 7.566406 19.183594 L 6.902344 19.898438 L 5.90625 19.898438 C 5.679688 19.898438 5.496094 20.082031 5.496094 20.308594 C 5.496094 20.535156 5.679688 20.71875 5.90625 20.71875 L 18.09375 20.71875 C 18.320312 20.71875 18.503906 20.535156 18.503906 20.308594 C 18.503906 20.082031 18.320312 19.898438 18.09375 19.898438 L 17.097656 19.898438 L 16.433594 19.183594 L 22.234375 19.183594 C 23.207031 19.183594 24 18.394531 24 17.421875 L 24 5.046875 C 24 4.074219 23.207031 3.28125 22.234375 3.28125 Z M 0.820312 16.957031 L 0.820312 5.507812 L 23.179688 5.507812 L 23.179688 16.957031 Z M 1.765625 4.101562 L 22.234375 4.101562 C 22.632812 4.101562 22.96875 4.34375 23.109375 4.691406 L 0.890625 4.691406 C 1.03125 4.34375 1.367188 4.101562 1.765625 4.101562 Z M 15.980469 19.898438 L 8.019531 19.898438 L 8.683594 19.183594 L 15.316406 19.183594 Z M 22.234375 18.367188 L 1.765625 18.367188 C 1.367188 18.367188 1.03125 18.121094 0.890625 17.777344 L 23.109375 17.777344 C 22.96875 18.121094 22.632812 18.367188 22.234375 18.367188 Z M 22.234375 18.367188"/>
    <path d="M 20.433594 8.691406 C 19.9375 8.195312 19.132812 8.195312 18.636719 8.691406 C 18.398438 8.929688 18.265625 9.25 18.265625 9.589844 C 18.265625 9.769531 18.304688 9.945312 18.378906 10.109375 L 15.109375 12.6875 C 14.738281 12.488281 14.285156 12.488281 13.914062 12.6875 L 10.644531 10.109375 C 10.855469 9.640625 10.769531 9.074219 10.386719 8.691406 C 9.890625 8.195312 9.085938 8.195312 8.589844 8.691406 C 8.207031 9.074219 8.121094 9.640625 8.332031 10.109375 L 5.0625 12.6875 C 4.582031 12.429688 3.96875 12.503906 3.566406 12.910156 C 3.070312 13.402344 3.070312 14.210938 3.566406 14.703125 C 3.8125 14.953125 4.140625 15.074219 4.464844 15.074219 C 4.789062 15.074219 5.113281 14.953125 5.363281 14.703125 C 5.746094 14.320312 5.832031 13.753906 5.621094 13.289062 L 8.890625 10.707031 C 9.078125 10.808594 9.28125 10.855469 9.488281 10.855469 C 9.695312 10.855469 9.898438 10.808594 10.085938 10.707031 L 13.355469 13.289062 C 13.144531 13.753906 13.230469 14.320312 13.613281 14.703125 C 13.863281 14.953125 14.1875 15.074219 14.511719 15.074219 C 14.835938 15.074219 15.164062 14.953125 15.410156 14.703125 C 15.792969 14.320312 15.878906 13.753906 15.667969 13.289062 L 18.9375 10.707031 C 19.125 10.808594 19.332031 10.855469 19.535156 10.855469 C 19.859375 10.855469 20.1875 10.734375 20.433594 10.484375 C 20.929688 9.992188 20.929688 9.183594 20.433594 8.691406 Z M 4.78125 14.125 C 4.605469 14.300781 4.320312 14.300781 4.144531 14.125 C 3.96875 13.949219 3.96875 13.664062 4.144531 13.488281 C 4.234375 13.398438 4.347656 13.355469 4.464844 13.355469 C 4.578125 13.355469 4.695312 13.398438 4.78125 13.488281 C 4.957031 13.664062 4.957031 13.949219 4.78125 14.125 Z M 9.167969 9.90625 C 8.992188 9.730469 8.992188 9.445312 9.167969 9.269531 C 9.257812 9.183594 9.371094 9.136719 9.488281 9.136719 C 9.601562 9.136719 9.71875 9.183594 9.804688 9.269531 C 9.980469 9.445312 9.980469 9.730469 9.804688 9.90625 C 9.632812 10.082031 9.34375 10.082031 9.167969 9.90625 Z M 14.832031 14.125 C 14.65625 14.300781 14.367188 14.300781 14.191406 14.125 C 14.019531 13.949219 14.019531 13.664062 14.191406 13.488281 C 14.28125 13.398438 14.394531 13.355469 14.511719 13.355469 C 14.628906 13.355469 14.742188 13.398438 14.832031 13.488281 C 15.007812 13.664062 15.007812 13.949219 14.832031 14.125 Z M 19.855469 9.90625 C 19.679688 10.082031 19.394531 10.082031 19.21875 9.90625 C 19.132812 9.820312 19.085938 9.707031 19.085938 9.589844 C 19.085938 9.46875 19.132812 9.355469 19.21875 9.269531 C 19.304688 9.183594 19.421875 9.136719 19.535156 9.136719 C 19.652344 9.136719 19.765625 9.183594 19.855469 9.269531 C 20.03125 9.445312 20.03125 9.730469 19.855469 9.90625 Z M 19.855469 9.90625"/>
</svg>

<svg xmlns="http://www.w3.org/2000/svg" width="32" height="32" viewBox="0 0 24 24">
    <path d="M22.234 3.281H1.766C.793 3.281 0 4.074 0 5.047v12.375c0 .973.793 1.762 1.766 1.762h5.8l-.664.714h-.996a.41.41 0 1 0 0 .82h12.188a.41.41 0 1 0 0-.82h-.996l-.664-.714h5.8c.973 0 1.766-.79 1.766-1.762V5.047c0-.973-.793-1.766-1.766-1.766zM.82 16.957V5.507h22.36v11.45zm.946-12.855h20.468a.94.94 0 0 1 .875.59H.891a.94.94 0 0 1 .875-.59zM15.98 19.898H8.02l.664-.714h6.632zm6.254-1.53H1.766a.945.945 0 0 1-.875-.59h22.218a.945.945 0 0 1-.875.59zm0 0"/>
    <path d="M20.434 8.691a1.27 1.27 0 0 0-2.168.899c0 .18.039.355.113.52l-3.27 2.578a1.27 1.27 0 0 0-1.195 0l-3.27-2.579a1.267 1.267 0 0 0-.257-1.418 1.27 1.27 0 0 0-1.797 0c-.383.383-.469.95-.258 1.418l-3.27 2.579a1.266 1.266 0 0 0-1.496.222 1.266 1.266 0 0 0 .899 2.164A1.262 1.262 0 0 0 5.62 13.29l3.27-2.582c.187.102.39.148.597.148.207 0 .41-.046.598-.148l3.27 2.582a1.262 1.262 0 0 0 1.156 1.785 1.262 1.262 0 0 0 1.156-1.785l3.27-2.582c.187.102.394.148.597.148a1.266 1.266 0 0 0 .898-2.164zM4.78 14.125a.45.45 0 1 1-.636-.637.45.45 0 0 1 .636.637zm4.387-4.219a.45.45 0 1 1 .637-.636.45.45 0 0 1-.637.636zm5.664 4.219a.455.455 0 0 1-.64 0 .458.458 0 0 1 0-.637.446.446 0 0 1 .32-.133.45.45 0 0 1 .32.77zm5.023-4.219a.45.45 0 1 1-.636-.637.45.45 0 0 1 .636.637zm0 0"/>
</svg>
